yogo/img/star1.svg

<svg width="82" height="81" viewBox="0 0 82 81" fill="none" xmlns="http://www.w3.org/2000/svg">
<path d="M40.6667 0.666626L43.7792 33.2756L69.4223 12.3824L48.1809 37.6052L81.3333 40.6666L48.1809 43.7281L69.4223 68.9509L43.7792 48.0577L40.6667 80.6666L37.5542 48.0577L11.911 68.9509L33.1524 43.7281L0 40.6666L33.1524 37.6052L11.911 12.3824L37.5542 33.2756L40.6667 0.666626Z" fill="white"/>
</svg>

<svg xmlns="http://www.w3.org/2000/svg" width="82" height="81" fill="none"><path fill="#fff" d="m40.667.667 3.112 32.609 25.643-20.894-21.241 25.223 33.152 3.062-33.152 3.061 21.241 25.223L43.78 48.058l-3.112 32.609-3.113-32.61-25.643 20.894 21.241-25.223L0 40.667l33.152-3.062-21.241-25.223 25.643 20.894z"/></svg>
